public/avatar/item2/53.svg

<svg xmlns:xlink="http://www.w3.org/1999/xlink" height="99.2" width="82.2" xmlns="http://www.w3.org/2000/svg"><use height="15.2" transform="translate(32.15 75.55)" width="21.9" xlink:href="#a"/><defs><use height="15.2" width="21.9" xlink:href="#b" id="a"/><g id="b" fill-rule="evenodd"><path d="M-.3-1.2q.45-.1.9.45l.8.9L2.9 2.2v.05l2.25 3.1.65.85.15.15 1.2 1.85.05 1.2V8.1l.2.3.05.1q.45 1.2.25 1.55V10l-.65 1.15.05-.05q-.65 1.2-2.15 1.55H3.4l-1.2-.25-.9.25h.05l-.95.6q-1.7 1.1-2.85.6l-.15-.1-1.8-1.4h.05l-2.45-.2-2.85-.15h-.05q-1.6-.65-1.7-2.15V9.7l.05-.1.25-1 .05-.1q-.05-.05-.25-.15l-1.15-.5-.1-.1-.75-.85v-.05l-.2-1.05-.15-.9.05-.1q.05-.65.5-1.2l.3-.4-.3-.2-.05-.05-.6-.65-.05-.05q-.45-.6-.35-1.05l.05-.2.25-.65.2-.35.35-.15h.2l3 .35.05-.05.9-.05 1.4-.2.4-.05v-.1l2.5-.25 2.25-.2 1.5-.3.65-.2h.15" transform="translate(14.15 1.2)"/><path d="M-.15-.85.3-.4 1.1.8l1.05 1.6L4.5 5.75 6.3 8.3l.25.55.3.5q.2.35-.55 1.25l-.6.65q-.3.35-.7.5H3.5l-1.25-.1q-.9.15-1.55.6l-1.85.9q-.65.05-1.15-.45-1.35-1.2-3.25-1.45h-.95l-1 .05q-1.05.15-2-.35-1.15-.7-.9-1.4.4-1.2.3-1.65l-.35-.4-.55-.35q-.8-.35-1.2-.7-1.1-.95-.55-2.3.45-.65.35-1l-.55-1q-.5-.5-.4-.9.1-.6.55-.5l.05-.05.15.05.65.05L-2.3-.4l1.55-.3.6-.15" fill="#c4900e" transform="translate(14.15 1.2)"/><path d="M-10.7 1.6-.1.25 5.95 9Q2 11.9-2.65 10.75q-3.3-.75-5.55-3.3-2.15-2.55-2.5-5.85" fill="#7f0505" transform="translate(14.15 1.2)"/><path d="m4.5 6.9 1.4 2.05.6.45q.15.25-.25.75l-.5.55-.55.4-1.4.4-.9-.1-1.85.1-2.15.7-1.3-.3-1.15-.6q-1.4-.8-2.55-.85l-2.05-.15-.5-.3-.3-.35V9.1q.1-.85-.05-1.15-.2-.5-.8-.85l-1.7-.85-.3-.4q-.25-.4-.05-1.1.35-1.1.25-1.45l-.15-.4-.45-.7-.3-.35q-.15-.45.2-.65l.7-.05 1.7.35 1.8-.25q2.15 4.7 7.15 5.9L4.5 6.9" fill="#f90606" transform="translate(14.15 1.2)"/><path d="M1.25 9.15q0 1.2-1.2 1.2t-1.2-1.2Q-1.15 8 .05 8t1.2 1.15m3.3-.35q0 1.2-1.2 1.2t-1.2-1.2q0-1.15 1.2-1.15t1.2 1.15M-6.3 5.5q0 1.15-1.15 1.15-1.2 0-1.2-1.15 0-1.2 1.2-1.2 1.15 0 1.15 1.2m-1.5-2.7Q-7.8 4-9 4t-1.2-1.2q0-1.15 1.2-1.15t1.2 1.15m2.05 5.1q0-1.5 1.5-1.5t1.5 1.5q0 1.45-1.5 1.45t-1.5-1.45" transform="translate(14.15 1.2)"/><path d="m3.4 8-.05.05-.15.25-.2.3.3.4.4.2-.3.25-.55-.25-.35-.35q0-.3.15-.45.05-.2.4-.3L3.4 8m-3 1.35q.3.2-.15.5h-.6q-.6-.45-.45-.9l.2-.5.5-.2v.05l-.2.35.7.7m-5.7-1.6.15-.5.5-.45.5-.05.45.1.05.05-.2.05-.25.1-.4.4.2.45.6.35.1.25-.1.2-.65.1-.35-.15-.4-.4-.2-.5M-7.75 6.1q-.65-.35-.6-.75l.65-.65.45-.05h.1v.05q-.35.05-.5.35-.15.35.1.55l.15.4-.35.1m-1.8-4 .7-.2.45.15-.55.2-.3.5.15.4q0 .35-.35.15-.4-.15-.35-.6l.25-.6" fill="#f9dac0" transform="translate(14.15 1.2)"/><path d="m-11.75 1.5.75.2h.15q.2.2-.2.55l-.35.15-.15-.15-.2-.15q-.35-.55 0-.6m1.2 3.7.15.3.1.3q.15.4-.15.45l-.65-.35-.25-.3-.15-.25v-.6l.35-.4v.05l.6.8m2.1 3.4v.05l.45.2.4.4.35.5q.05.4-.75.15-.45-.1-.55-.4l-.05-.6.15-.3m6.25 2.45 1.65.3q.35.05-.1.3l-.75.1-.75-.25-.4-.25h.05q-.2-.2.3-.2M4.25 11l.2-.3.95-.9q.35-.35.6-.3.3.05.1.35l-.85.75-1 .4" fill="#eb6665" transform="translate(14.15 1.2)"/><path d="m-1.3 11.6-.55-.15h.05l-.05-.05q.3-.4.7.15l-.15.05m-7-2.6-.05-.05.25.35.05.2-.35-.15Q-8.55 9-8.3 9m-3.05-4.1.25.15q.35.35.2.5l-.45-.3V4.9m0-3.1v.1q0 .25-.4-.2l.4.1" fill="#f29191" transform="translate(14.15 1.2)"/><path d="M-7.3 1.75-.5.6l-.55.25-5.4 1.45-.55.05-.3-.6m5.35.25L-4.8 3.95l-.35.35-.45-.35-.35-.4V3.3l.25-.15 4.8-2.1.1-.05-1.15 1m.85 0L-.3.85-.65 2.1l-.15.45-.4.5-1.2 1.6-.5.8-.15.35-.6-.3-.3-.2-.1-.1-.05.05.2-.25 2.8-3M.15 4.25l.1.85.1.4V6l.15.45.15.2-.25.2-.7-.15h-.35l.35-3.55.1-1.25.05.25.1 1.3.2.8M1.9 3.7 3 5.4l.7 1.25h-.55l-.6.1h-.2l-.5-1.65-.25-1.05-.15-.35L.2 1.45l-.2-.4h.05l.8 1.2L1.9 3.7" fill="#eb6665" transform="translate(14.15 1.2)"/></g></defs></svg>

<?xml version="1.0" encoding="UTF-8" standalone="no"?>
<svg xmlns:xlink="http://www.w3.org/1999/xlink" height="99.2px" width="82.2px" xmlns="http://www.w3.org/2000/svg">
  <g transform="matrix(1.0, 0.0, 0.0, 1.0, 31.0, 46.75)">
    <use height="15.2" transform="matrix(1.0, 0.0, 0.0, 1.0, 1.15, 28.8)" width="21.9" xlink:href="#sprite0"/>
  </g>
  <defs>
    <g id="sprite0" transform="matrix(1.0, 0.0, 0.0, 1.0, 14.15, 1.2)">
      <use height="15.2" transform="matrix(1.0, 0.0, 0.0, 1.0, -14.15, -1.2)" width="21.9" xlink:href="#shape0"/>
    </g>
    <g id="shape0" transform="matrix(1.0, 0.0, 0.0, 1.0, 14.15, 1.2)">
      <path d="M-0.3 -1.2 Q0.15 -1.3 0.6 -0.75 L1.4 0.15 2.9 2.2 2.9 2.25 5.15 5.35 5.8 6.2 5.95 6.35 7.15 8.2 7.2 9.4 7.2 8.1 7.4 8.4 7.45 8.5 Q7.9 9.7 7.7 10.05 L7.7 10.0 7.05 11.15 7.1 11.1 Q6.45 12.3 4.95 12.65 L3.45 12.65 3.4 12.65 2.2 12.4 1.3 12.65 1.35 12.65 0.4 13.25 Q-1.3 14.35 -2.45 13.85 L-2.6 13.75 -4.4 12.35 -4.35 12.35 -6.8 12.15 -9.65 12.0 -9.7 12.0 Q-11.3 11.35 -11.4 9.85 L-11.4 9.7 -11.35 9.6 -11.1 8.6 -11.05 8.5 Q-11.1 8.45 -11.3 8.35 L-12.45 7.85 -12.55 7.75 -13.3 6.9 -13.3 6.85 -13.5 5.8 -13.65 4.9 -13.6 4.8 Q-13.55 4.15 -13.1 3.6 L-12.8 3.2 -13.1 3.0 -13.15 2.95 -13.75 2.3 -13.8 2.25 Q-14.25 1.65 -14.15 1.2 L-14.1 1.0 -13.85 0.35 -13.65 0.0 -13.3 -0.15 -13.1 -0.15 -10.1 0.2 -10.05 0.15 -9.15 0.1 -7.75 -0.1 -7.35 -0.15 -7.35 -0.25 -4.85 -0.5 -2.6 -0.7 -1.1 -1.0 -0.45 -1.2 -0.3 -1.2" fill="#000000" fill-rule="evenodd" stroke="none"/>
      <path d="M-0.15 -0.85 L0.3 -0.4 1.1 0.8 2.15 2.4 4.5 5.75 6.3 8.3 6.55 8.85 6.85 9.35 Q7.05 9.7 6.3 10.6 L5.7 11.25 Q5.4 11.6 5.0 11.75 L3.5 11.75 2.25 11.65 Q1.35 11.8 0.7 12.25 L-1.15 13.15 Q-1.8 13.2 -2.3 12.7 -3.65 11.5 -5.55 11.25 L-6.5 11.25 -7.5 11.3 Q-8.55 11.45 -9.5 10.95 -10.65 10.25 -10.4 9.55 -10.0 8.35 -10.1 7.9 L-10.45 7.5 -11.0 7.15 Q-11.8 6.8 -12.2 6.45 -13.3 5.5 -12.75 4.15 -12.3 3.5 -12.4 3.15 L-12.95 2.15 Q-13.45 1.65 -13.35 1.25 -13.25 0.65 -12.8 0.75 L-12.75 0.7 -12.6 0.75 -11.95 0.8 -2.3 -0.4 -0.75 -0.7 -0.15 -0.85" fill="#c4900e" fill-rule="evenodd" stroke="none"/>
      <path d="M-10.7 1.6 L-0.1 0.25 5.95 9.0 Q2.0 11.9 -2.65 10.75 -5.95 10.0 -8.2 7.45 -10.35 4.9 -10.7 1.6" fill="#7f0505" fill-rule="evenodd" stroke="none"/>
      <path d="M4.5 6.9 L5.9 8.95 6.5 9.4 Q6.65 9.65 6.25 10.15 L5.75 10.7 5.2 11.1 3.8 11.5 2.9 11.4 1.05 11.5 -1.1 12.2 -2.4 11.9 -3.55 11.3 Q-4.95 10.5 -6.1 10.45 L-8.15 10.3 -8.65 10.0 -8.95 9.65 -8.95 9.1 Q-8.85 8.25 -9.0 7.95 -9.2 7.45 -9.8 7.1 L-11.5 6.25 -11.8 5.85 Q-12.05 5.45 -11.85 4.75 -11.5 3.65 -11.6 3.3 L-11.75 2.9 -12.2 2.2 -12.5 1.85 Q-12.65 1.4 -12.3 1.2 L-11.6 1.15 -9.9 1.5 -8.1 1.25 Q-5.95 5.95 -0.95 7.15 L4.5 6.9" fill="#f90606" fill-rule="evenodd" stroke="none"/>
      <path d="M1.25 9.15 Q1.25 10.35 0.05 10.35 -1.15 10.35 -1.15 9.15 -1.15 8.0 0.05 8.0 1.25 8.0 1.25 9.15" fill="#000000" fill-rule="evenodd" stroke="none"/>
      <path d="M4.55 8.8 Q4.55 10.0 3.35 10.0 2.15 10.0 2.15 8.8 2.15 7.65 3.35 7.65 4.55 7.65 4.55 8.8" fill="#000000" fill-rule="evenodd" stroke="none"/>
      <path d="M-6.3 5.5 Q-6.3 6.65 -7.45 6.65 -8.65 6.65 -8.65 5.5 -8.65 4.3 -7.45 4.3 -6.3 4.3 -6.3 5.5" fill="#000000" fill-rule="evenodd" stroke="none"/>
      <path d="M-7.8 2.8 Q-7.8 4.0 -9.0 4.0 -10.2 4.0 -10.2 2.8 -10.2 1.65 -9.0 1.65 -7.8 1.65 -7.8 2.8" fill="#000000" fill-rule="evenodd" stroke="none"/>
      <path d="M-5.75 7.9 Q-5.75 6.4 -4.25 6.4 -2.75 6.4 -2.75 7.9 -2.75 9.35 -4.25 9.35 -5.75 9.35 -5.75 7.9" fill="#000000" fill-rule="evenodd" stroke="none"/>
      <path d="M3.4 8.0 L3.35 8.05 3.2 8.3 3.0 8.6 3.3 9.0 3.7 9.2 3.4 9.45 2.85 9.2 2.5 8.85 Q2.5 8.55 2.65 8.4 2.7 8.2 3.05 8.1 L3.4 8.0" fill="#f9dac0" fill-rule="evenodd" stroke="none"/>
      <path d="M0.4 9.35 Q0.7 9.55 0.25 9.85 L-0.35 9.85 Q-0.95 9.4 -0.8 8.95 L-0.6 8.45 -0.1 8.25 -0.1 8.3 -0.3 8.65 0.4 9.35" fill="#f9dac0" fill-rule="evenodd" stroke="none"/>
      <path d="M-5.3 7.75 L-5.15 7.25 -4.65 6.8 -4.15 6.75 -3.7 6.85 -3.65 6.9 -3.85 6.95 -4.1 7.05 -4.5 7.45 -4.3 7.9 -3.7 8.25 -3.6 8.5 -3.7 8.7 -4.35 8.8 -4.7 8.65 -5.1 8.25 -5.3 7.75" fill="#f9dac0" fill-rule="evenodd" stroke="none"/>
      <path d="M-7.75 6.1 Q-8.4 5.75 -8.35 5.35 L-7.7 4.7 -7.25 4.65 -7.15 4.65 -7.15 4.7 Q-7.5 4.75 -7.65 5.05 -7.8 5.4 -7.55 5.6 L-7.4 6.0 -7.75 6.1" fill="#f9dac0" fill-rule="evenodd" stroke="none"/>
      <path d="M-9.55 2.1 L-8.85 1.9 -8.4 2.05 -8.95 2.25 -9.25 2.75 -9.1 3.15 Q-9.1 3.5 -9.45 3.3 -9.85 3.15 -9.8 2.7 L-9.55 2.1" fill="#f9dac0" fill-rule="evenodd" stroke="none"/>
      <path d="M-11.75 1.5 L-11.0 1.7 -10.85 1.7 Q-10.65 1.9 -11.05 2.25 L-11.4 2.4 -11.55 2.25 -11.75 2.1 Q-12.1 1.55 -11.75 1.5" fill="#eb6665" fill-rule="evenodd" stroke="none"/>
      <path d="M-10.55 5.2 L-10.4 5.5 -10.3 5.8 Q-10.15 6.2 -10.45 6.25 L-11.1 5.9 -11.35 5.6 -11.5 5.35 -11.5 4.75 -11.15 4.35 -11.15 4.4 -10.55 5.2" fill="#eb6665" fill-rule="evenodd" stroke="none"/>
      <path d="M-8.45 8.6 L-8.45 8.65 -8.0 8.85 -7.6 9.25 -7.25 9.75 Q-7.2 10.15 -8.0 9.9 -8.45 9.8 -8.55 9.5 L-8.6 8.9 -8.45 8.6" fill="#eb6665" fill-rule="evenodd" stroke="none"/>
      <path d="M-2.2 11.05 L-0.55 11.35 Q-0.2 11.4 -0.65 11.65 L-1.4 11.75 -2.15 11.5 -2.55 11.25 -2.5 11.25 Q-2.7 11.05 -2.2 11.05" fill="#eb6665" fill-rule="evenodd" stroke="none"/>
      <path d="M4.25 11.0 L4.45 10.7 5.4 9.8 Q5.75 9.45 6.0 9.5 6.3 9.55 6.1 9.85 L5.25 10.6 4.25 11.0" fill="#eb6665" fill-rule="evenodd" stroke="none"/>
      <path d="M-1.3 11.6 L-1.85 11.45 -1.8 11.45 -1.85 11.4 Q-1.55 11.0 -1.15 11.55 L-1.3 11.6" fill="#f29191" fill-rule="evenodd" stroke="none"/>
      <path d="M-8.3 9.0 L-8.35 8.95 -8.1 9.3 -8.05 9.5 -8.4 9.35 Q-8.55 9.0 -8.3 9.0" fill="#f29191" fill-rule="evenodd" stroke="none"/>
      <path d="M-11.35 4.9 L-11.1 5.05 Q-10.75 5.4 -10.9 5.55 L-11.35 5.25 -11.35 4.9" fill="#f29191" fill-rule="evenodd" stroke="none"/>
      <path d="M-11.35 1.8 L-11.35 1.9 Q-11.35 2.15 -11.75 1.7 L-11.35 1.8" fill="#f29191" fill-rule="evenodd" stroke="none"/>
      <path d="M-7.3 1.75 L-0.5 0.6 -1.05 0.85 -6.45 2.3 -7.0 2.35 -7.3 1.75" fill="#eb6665" fill-rule="evenodd" stroke="none"/>
      <path d="M-1.95 2.0 L-4.8 3.95 -5.15 4.3 -5.6 3.95 -5.95 3.55 -5.95 3.3 -5.7 3.15 -0.9 1.05 -0.8 1.0 -1.95 2.0" fill="#eb6665" fill-rule="evenodd" stroke="none"/>
      <path d="M-1.1 2.0 L-0.3 0.85 -0.65 2.1 -0.8 2.55 -1.2 3.05 -2.4 4.65 -2.9 5.45 -3.05 5.8 -3.65 5.5 -3.95 5.3 -4.05 5.2 -4.1 5.25 -3.9 5.0 -1.1 2.0" fill="#eb6665" fill-rule="evenodd" stroke="none"/>
      <path d="M0.15 4.25 L0.25 5.1 0.35 5.5 0.35 6.0 0.5 6.45 0.65 6.65 0.4 6.85 -0.3 6.7 -0.65 6.7 -0.3 3.15 -0.2 1.9 -0.15 2.15 -0.05 3.45 0.15 4.25" fill="#eb6665" fill-rule="evenodd" stroke="none"/>
      <path d="M1.9 3.7 L3.0 5.4 3.7 6.65 3.15 6.65 2.55 6.75 2.35 6.75 1.85 5.1 1.6 4.05 1.45 3.7 0.2 1.45 0.0 1.05 0.05 1.05 0.85 2.25 1.9 3.7" fill="#eb6665" fill-rule="evenodd" stroke="none"/>
    </g>
  </defs>
</svg>
